img/icon-facebook.svg

<svg enable-background="new 0 0 20 20" height="20" viewBox="0 0 20 20" width="20" xmlns="http://www.w3.org/2000/svg"><path d="m18.9 0h-17.8c-.6 0-1.1.5-1.1 1.1v17.8c0 .6.5 1.1 1.1 1.1h9.6v-7.7h-2.6v-3h2.6v-2.3c0-2.6 1.6-4 3.9-4 1.1 0 2.1.1 2.3.1v2.7h-1.6c-1.3 0-1.5.6-1.5 1.5v1.9h3l-.4 3h-2.6v7.8h5.1c.6 0 1.1-.5 1.1-1.1v-17.8c0-.6-.5-1.1-1.1-1.1z" fill="#1c2624"/></svg>

<?xml version="1.0" encoding="utf-8"?>
<svg version="1.1" id="icon-facebook" xmlns="http://www.w3.org/2000/svg" xmlns:xlink="http://www.w3.org/1999/xlink" x="0px" y="0px"
	 width="20px" height="20px" viewBox="0 0 20 20" style="enable-background:new 0 0 20 20;" xml:space="preserve">
<style type="text/css">
	.st0{fill:#1C2624;}
</style>
<path class="st0" d="M18.9,0H1.1C0.5,0,0,0.5,0,1.1v17.8C0,19.5,0.5,20,1.1,20h9.6v-7.7H8.1v-3h2.6V7c0-2.6,1.6-4,3.9-4
	c1.1,0,2.1,0.1,2.3,0.1v2.7l-1.6,0c-1.3,0-1.5,0.6-1.5,1.5v1.9h3l-0.4,3h-2.6V20h5.1c0.6,0,1.1-0.5,1.1-1.1V1.1
	C20,0.5,19.5,0,18.9,0z"/>
</svg>
